X: 14795
T: Gander In The Pratie Hole, The
R: jig
M: 6/8
K: Dmixolydian
|:FAD FAD|GFG EFG|FAD FAD|GED D3|
FAD FAD|GFG EFG|fed cAF|GEDD3:|
|:Add ded|cAB cAG|Add ded|cAB c3|
Add ded|cAB cde|fed cAF|GEDD3:|

